X:1
T:Fraile man, despise the treasures of this life
T:John Bull (1562-1628) 
T:Edited by Stuart McIntosh
T:Fraile man, despise the treasures of this life 
T:© Copyright 1997 Stuart McIntosh
T:S.A.T.B., a cappella
C:John Bull (1562-1628)
C:
%%score [ 1 2 3 4 ]
L:1/8
Q:1/4=76
M:4/4
K:C
V:1 treble nm="Soprano" snm="S."
V:2 treble nm="Alto" snm="A."
V:3 treble-8 nm="Tenor" snm="T."
V:4 bass nm="Bass" snm="B."
V:1
 z8 | z8 | z8 | A8 | ^G4 A4 | B3 B A2 c2 | c2 d2 B4 | z2 A2 A2 ^G2 | A3 G F(E F2) | %9
w: |||Fraile|man de-|spise the trea- sures|of this life,|De- spise the|trea- sures of this _|
 E2 A A2 (G F2) | E6 D2 | D2 (^C2 D4) | A,4 z4 | z4 z2 d2 | d2 ^c2 e3 d | ^c(B c2) d2 A2 | A4 z4 | %17
w: life, de- spise the _|trea- sures|of this _|life|De-|spise the trea- sures|of this _ life, this|life;|
 z2 A4 B2- | B2 ^c2 d2 _B2 | A>A AG A4 | z2 A2 A3 A | ^F4 ^G4 | A2 A A2 (=G/F/) E2 | z2 d2 d3 d | %24
w: Earth's wealth|_ is want, joy|sor- row, peace and strife.|Dame For- tune's|bit- ter|sweetes doe not af- * fect,|Dame For- tune's|
 ^c4 d4 | e2 e2 f3 f | e8 | z2 E2 A4- | A2 ^G2 A3 E | GG^FF E2 B2 | e6 ^d2 | e2 e e2 dc(B | %32
w: bit- ter|sweetes doe not af-|fect|Her hap-|* piest state's un-|wor- thy thy re- spect, her|hap- piest|state's un- wor- thy thy re-|
 AG) A4 G2 | ^F6 F2 | ^F8 | ^G2 A4 G2 | A2 G2 D2 D2 | E4 z2 E2 | c3 B A2 ^G2 | A2 B3 A A2- | %40
w: * * spect, un-|wor- thy|thy|re- spect, un-|wor- thy thy re-|spect. For|like as Jo- nah's|gourd, ev- en in|
 A2 (^G2 A4) | E4 z2 E2 | c3 B A2 ^G2 | A3 d B4 | A2 ^G2 z2 E2 | e3 d c2 (B2- | BA) A4 ^G2 | %47
w: _ a _|night For|like as Jo- nah's|gourd, ev'n in|a night Springs|up and dies a-|* * gaine this|
 A3 =G F4 | E8 | E8 | F2 E4 D2- | D2 (^CB,) C4- |"^" C8 |] %53
w: world's de- *|light,|this|world's de- light,|_ de- * light.|_|
V:2
 E8 | ^C4 D4 | (E3 D/=C/) B,2 E2- | E2 E2 D2 F2 | E4 z2 E2 | D3 E F2 E2 | E2 D2 E3 D | %7
w: Fraile|man de-|spise _ _ the trea-|* sures of this|life, De-|spise the trea- sures|of this life, de-|
 ^C(B, C2) D3 E | F2 E2 D4 | z4 z2 A2 | A2 ^G2 A3 =G | FE F4 z D | F2 (E>D) C2 B,2 | F2 E2 D4 | %14
w: spise the _ trea- sures|of this life.|De-|spise the trea- sures|of this life, De-|spise the _ trea- sures|of this life,|
 z2 A2 A2 G2 | (A3 =G F)E F(E/D/) | E3 D ^CA, D2- | D2 ^C2 D4 | z2 G2 A2 G2 | C3 D E2 F2 | %20
w: De- spise the|trea- * * sures of this _|life, the trea- sures of|_ this *|Earth's wealth is|want, joy sor- row.|
 E2 D4 ^C2 | z2 D2 D3 D | ^C3 D E2 A2 | A4 (^G>A) (B2 | A2) E2 A3 (B | c2) B4 A2 | ^G2 A2 A2 G2 | %27
w: peace but strife.|Dame For- tune's|bit- ter sweetes doe|not af- * fect|_ doe not af-|* fect, Dame|For- tune's bit- ter|
 A3 =G F(EDC | B,A, B,2) A,4 | z B, B3 AG^F | E2 Ee dcBA | ^G2 c2 B2 E2 | E2 D2 E4- | E2 D2 ^C4 | %34
w: sweetes doe not af- * *|* * * fect;|Her hap- piest state's un-|wor- thy, un- wor- thy thy re-|spect, re- spect, her|hap- piest state's|_ un- wor-|
 ^D2 E4 D2 | E8 | D4 D2 A,2 | B,2 C2 B,4 | E4 E4 | E4 E2 F2 | D2 E4 E2 | c3 B A2 ^G2 | %42
w: thy thy re-|spect,|her hap- piest|state's un- wor-|thy thy|re- spect, thy|re- spect. For|like as Jo- nah's|
 A2 E2 F2 (E2- | E2 D2) E3 D | C2 (B,2 A,2) ^G,2 | z2 E6 | GG^FE GFE(D | F2) E4 D2 | %48
w: gourd, ev'n in _|_ _ night, ev'n|in a _ night|Springs|up and dies a- gaine this world's de-|* light, springs|
 D2 C2 B,2 A,2 | ^G,2 C2 B,2 B,2 | C3 B, A,4- | A,2 A,2 A,4- |"^" A,8 |] %53
w: up and dies a-|gaine this world's de-|light, this world's|_ de- light.|_|
V:3
 z4 A,4- | A,4 ^F,4 | ^G,2 A,4 G,2 | (A,3 E, F,G,A,B,) | (CB,) B,3 (A, C2) | B,4 z2 A,2 | %6
w: Fraile|_ man|de- spise the|trea- * * * * *|sures _ of this _|life, Fraile|
 A,4 ^G,4 | A,4 z2 D2 | D2 ^C2 (D>=C B,A, | G,2 A,>G, F,E, D,2) | E,4 F,3 (G, | A,2) _B,4 z2 | %12
w: man de-|spise, de-|spise the trea- * * *||sures of this|_ life,|
 z2 A,2 A,2 ^G,2 | A,3 G, ^F,(E, F,2) | ^G,2 A,2 E,4 | z4 z2 D2 | D2 ^C2 E3 D | F2 E2 D3 F | %18
w: De- spise, de-|spise the trea- sures _|of this life,|De-|spise the trea- sures|of this life, the|
 E2 E2 D3 (E | F2) E4 D2 | ^C2 F2 E4 | (D3 C B,A, B,2) | (A,3 B, ^C) (D2 C) | D3 =C B,4 | %24
w: trea- sures of this|_ life; Earth's|wealth is want,|joy _ _ _ _|sor- * * row, _|peace but strife.|
 z2 A,2 A,3 A, | ^G,4 (A,3 B,) | C2 C2 B,3 B, | A,4 z4 | z2 B,2 E4- | E2 ^D2 EE E2- | %30
w: Dame For- tune's|bit- ter _|sweetes doe not af-|fect;|Her hap-|* piest state's un- wor-|
 ED C2 B,2 B,2- | B,2 A,4 ^G,2 | A,3 B, C3 B, | A,6 A,2 | B,8 | B,2 CC B,3 B, | A,2 B,2 A,3 A, | %37
w: * thy thy re- spect,|_ thy re-|spect un- wor- thy|thy re-|spect,|her hap- piest state's un-|wor- thy thy re-|
 ^G,2 A,4 G,2 | A,2 E,2 C3 B, | A,2 ^G,2 A,2 z2 | z2 E,2 C3 B, | A,2 (^G,2 A,2) E,2- | %42
w: spect, thy re-|spect. For like as|Jo- nah's gourd|For like as|Jo- nah's _ gourd,|
 E,2 z2 z2 E,2 | F,3 F, E,2 E,2 | E3 D C2 (B,2 | A,2) ^G,2 z2 B,2 | E2 (DC) B,(A, B,2) | %47
w: _ ev'n|in a night Springs|up and dies a-|* gaine, springs|up and _ dies a- *|
 A,A, C4 B,2 | B,2 A,2 ^G,G, C2 | B,2 A,4 ^G,2 | A,3 =G, E,E, F,2- | F,F,E,D, E,4- |"^" E,8 |] %53
w: gaine, for like as|Jo- nah's gourd, ev'n in|a night springs|up and dies a- gaine|_ this world's de- light.|_|
V:4
 z8 | z8 | E,8 | ^C,4 D,4 | E,3 D, C,A,, A,2- | A,2 ^G,2 A,3 =G, | F,(E, F,2) E,4 | A,,2 A,2 B,4 | %8
w: ||Fraile|man de-|spise the trea- sures of|_ this life, de-|spise the _ trea-|sures of this|
 A,4 z2 D2 | D2 ^C2 D3 =C | B,(A, B,2) A,4 | z4 z2 D2 | D2 ^C2 E3 D | ^C(B, C2) D2 A,2 | %14
w: life, De-|spise the trea- sures|of this _ life,|De-|spise the trea- sures|of this _ life, the|
 (E3 D C2) B,2 | (A,G,F,E, D,^C, D,)(C,/B,,/) | A,,2 A,2 A,2 G,2 | A,3 G, F,(E, D,2) | %18
w: trea- * * sures|of _ _ _ _ _ _ this _|life, De- spise the|trea- sures of this _|
 E,2 E,2 ^F,2 G,2 | A,3 B, ^C2 D2 | A,6 A,2 | D,4 z4 | z2 A,2 A,3 A, | ^F,4 ^G,4 | %24
w: life; Earth's wealth is|want, joy sor- row,|peace but|strife.|Dame For- tune's|bit- ter|
 A,3 =G, (F,E,) F,2 | E,4 D,4 | E,6 E,2 | A,,4 z2 A,2 | D6 C2 | B,3 A, G,^F,E,(D, | %30
w: sweetes doe not _ af-|fect doe|not af-|fect; Her|hap- piest|state's un- wor- thy thy re-|
 C,B,, A,,2) B,,2 B,,2 | E,2 A,,2 E,4 | F,4 E,4 | ^F,8 | B,,8 | E,8 | ^F,2 =G,4 F,2 | E,8 | %38
w: * * * spect, un-|wor- thy thy|re- spect,|thy|re-|spect,|un- wor- thy|thy|
 A,,6 E,2 | z2 B,2 C2 D2 | B,3 B, A,4 | z2 E,2 C3 B, | A,2 ^G,2 A,2 B,2- | B,A, A,4 ^G,2 | %44
w: re- spect,|un- wor- thy|thy re- spect.|For like as|Jo- nah's gourd, e-|* ven in a|
 A,2 E,2 E3 D | C2 B,2 A,2 (G,F,) | E,6 E,2 | A,,2 A,,2 D,3 D, | E,8 | E,8 | A,,3 B,, C,4 | %51
w: night Springs up and|dies a- gaine this _|world's de-|light springs up and|dies|a-|gaine this world's|
 F,,4 A,,4- |"^" A,,8 |] %53
w: de- light.|_|

